X:3773
L:1/16
M:2/4
K:G
 GA | BdGd AdFA | GABc BdGd | AFGA BGAF | G2>A2 BdGd | AdFA GABc | BdGd AFGA | BGAF (G2 :|S e)f | 
 g2fd e2>f2 | gefd e2>f2 | g2fg eaga | fafe d2gf | edcB cdef | gedc BdGd | AdFA GABc | BdGd GFGA | 
 BGAF G2 :| GD || B,DG,B, A,2>C2 | B,DG,B, A,2>C2 | B,DG,B, A,CB,C | DFEF G2-!D.S.! :|

